images_sukapura_svg/cmd/lc_spacing.svg

<svg viewBox="0 0 24 24" xmlns="http://www.w3.org/2000/svg" xmlns:xlink="http://www.w3.org/1999/xlink"><linearGradient id="a" gradientTransform="translate(-25.830508 -3.59322)" gradientUnits="userSpaceOnUse" x1="14" x2="13.79661" y1="22" y2="2.135593"><stop offset="0" stop-color="#0040dd"/><stop offset="1" stop-color="#0a84ff"/></linearGradient><linearGradient id="b" gradientUnits="userSpaceOnUse" x1="5.507813" x2="5.507813" xlink:href="#a" y1="21.494141" y2="15.494141"/><linearGradient id="c" gradientUnits="userSpaceOnUse" x1="18.500002" x2="18.500002" xlink:href="#a" y1="21.494141" y2="15.494141"/><linearGradient id="d" gradientUnits="userSpaceOnUse" x1="12" x2="12" xlink:href="#a" y1="22" y2="15"/><path d="m18.500001 15.494141 3 3.005859-3 2.994141z" fill="url(#c)" stroke="url(#c)" stroke-linecap="round" stroke-linejoin="round"/><g fill="#696969" stroke-width=".42256"><path d="m9.1568003 11.201786h-4.6547596l-.9738681 2.797808h-2.1705706l4.539216-12.0165428h1.8734582l4.5474688 12.0165428h-2.178823zm-4.0687881-1.6836364h3.4828166l-1.7414083-4.9848844z"/><path d="m17.294376 11.383355 3.053655-9.4003038h2.294367l-4.324635 12.0165428h-2.022014l-4.308129-12.0165428h2.286114z"/></g><g stroke-linecap="round" stroke-linejoin="round"><path d="m5.5078125 15.494141-3 3.005859 3 2.994141z" fill="url(#b)" stroke="url(#b)"/><path d="m2.5071212 18.500004 18.9928788-.000004" fill="none" stroke="url(#d)"/></g></svg>

<?xml version="1.0" encoding="UTF-8" standalone="no"?>
<svg
   xmlns:dc="http://purl.org/dc/elements/1.1/"
   xmlns:cc="http://creativecommons.org/ns#"
   xmlns:rdf="http://www.w3.org/1999/02/22-rdf-syntax-ns#"
   xmlns:svg="http://www.w3.org/2000/svg"
   xmlns="http://www.w3.org/2000/svg"
   xmlns:xlink="http://www.w3.org/1999/xlink"
   xmlns:sodipodi="http://sodipodi.sourceforge.net/DTD/sodipodi-0.dtd"
   xmlns:inkscape="http://www.inkscape.org/namespaces/inkscape"
   viewBox="0 0 24 24"
   version="1.1"
   id="svg20"
   sodipodi:docname="lc_spacing.svg"
   inkscape:version="0.92.3 (unknown)">
  <metadata
     id="metadata26">
    <rdf:RDF>
      <cc:Work
         rdf:about="">
        <dc:format>image/svg+xml</dc:format>
        <dc:type
           rdf:resource="http://purl.org/dc/dcmitype/StillImage" />
        <dc:title></dc:title>
      </cc:Work>
    </rdf:RDF>
  </metadata>
  <defs
     id="defs24">
    <linearGradient
       gradientTransform="translate(-25.830508,-3.5932203)"
       id="a"
       gradientUnits="userSpaceOnUse"
       x1="14"
       x2="13.79661"
       y1="22"
       y2="2.1355929">
      <stop
         offset="0"
         stop-color="#0040dd"
         id="stop2" />
      <stop
         offset="1"
         stop-color="#0a84ff"
         id="stop4" />
    </linearGradient>
    <linearGradient
       inkscape:collect="always"
       xlink:href="#a"
       id="linearGradient1026"
       gradientUnits="userSpaceOnUse"
       gradientTransform="matrix(-1,0,0,1,-29.010942,26.95119)"
       x1="-31.010942"
       y1="-4.95119"
       x2="-31.010942"
       y2="-16.951191" />
    <linearGradient
       inkscape:collect="always"
       xlink:href="#a"
       id="linearGradient886"
       x1="5.5078125"
       y1="21.494141"
       x2="5.5078125"
       y2="15.494141"
       gradientUnits="userSpaceOnUse" />
    <linearGradient
       inkscape:collect="always"
       xlink:href="#a"
       id="linearGradient888"
       x1="18.500002"
       y1="21.494141"
       x2="18.500002"
       y2="15.494141"
       gradientUnits="userSpaceOnUse" />
    <linearGradient
       inkscape:collect="always"
       xlink:href="#a"
       id="linearGradient896"
       x1="5.5078125"
       y1="21.494141"
       x2="5.5078125"
       y2="15.494141"
       gradientUnits="userSpaceOnUse" />
    <linearGradient
       inkscape:collect="always"
       xlink:href="#a"
       id="linearGradient898"
       x1="18.500002"
       y1="21.494141"
       x2="18.500002"
       y2="15.494141"
       gradientUnits="userSpaceOnUse" />
    <linearGradient
       inkscape:collect="always"
       xlink:href="#a"
       id="linearGradient906"
       x1="12"
       y1="22"
       x2="12"
       y2="15"
       gradientUnits="userSpaceOnUse" />
  </defs>
  <sodipodi:namedview
     pagecolor="#ffffff"
     bordercolor="#666666"
     borderopacity="1"
     objecttolerance="10"
     gridtolerance="10"
     guidetolerance="10"
     inkscape:pageopacity="0"
     inkscape:pageshadow="2"
     inkscape:window-width="1366"
     inkscape:window-height="706"
     id="namedview22"
     showgrid="true"
     inkscape:zoom="4.9166667"
     inkscape:cx="7.0465978"
     inkscape:cy="-19.681127"
     inkscape:window-x="0"
     inkscape:window-y="0"
     inkscape:window-maximized="1"
     inkscape:current-layer="svg20">
    <inkscape:grid
       type="xygrid"
       id="grid852"
       spacingx="0.5"
       spacingy="0.5"
       empspacing="2" />
  </sodipodi:namedview>
  <path
     style="fill:url(#linearGradient888);stroke:url(#linearGradient898);stroke-linecap:round;stroke-linejoin:round;fill-opacity:1"
     id="path866"
     d="m 18.500001,15.494141 3,3.005859 -3,2.994141 z"
     inkscape:connector-curvature="0" />
  <g
     aria-label="AV"
     style="font-style:normal;font-weight:normal;font-size:16.90238953px;line-height:1.25;font-family:sans-serif;letter-spacing:0px;word-spacing:0px;fill:#696969;fill-opacity:1;stroke:none;stroke-width:0.42255977"
     id="text856">
    <path
       d="M 9.1568003,11.201786 H 4.5020407 L 3.5281726,13.999594 H 1.357602 L 5.896818,1.9830512 H 7.7702762 L 12.317745,13.999594 H 10.138922 Z M 5.0880122,9.5181496 H 8.5708288 L 6.8294205,4.5332652 Z"
       style="font-style:normal;font-variant:normal;font-weight:500;font-stretch:normal;font-family:Roboto;-inkscape-font-specification:'Roboto Medium';fill:#696969;fill-opacity:1;stroke-width:0.42255977"
       id="path858" />
    <path
       d="m 17.294376,11.383355 3.053655,-9.4003038 h 2.294367 L 18.317763,13.999594 H 16.295749 L 11.98762,1.9830512 h 2.286114 z"
       style="font-style:normal;font-variant:normal;font-weight:500;font-stretch:normal;font-family:Roboto;-inkscape-font-specification:'Roboto Medium';fill:#696969;fill-opacity:1;stroke-width:0.42255977"
       id="path860" />
  </g>
  <path
     style="fill:url(#linearGradient886);stroke:url(#linearGradient896);stroke-linecap:round;stroke-linejoin:round;fill-opacity:1"
     d="m 5.5078125,15.494141 -3,3.005859 3,2.994141 z"
     id="path12"
     inkscape:connector-curvature="0" />
  <path
     style="fill:none;stroke:url(#linearGradient906);stroke-linecap:round;stroke-linejoin:round"
     d="M 2.5071212,18.500004 21.5,18.5"
     id="path14"
     inkscape:connector-curvature="0"
     sodipodi:nodetypes="cc" />
</svg>
